X:6
T:Marcel Messervier
M:6/8
K:D
|: F2B BcB | F2B BcB | E2A ABA |  cAB cde \
|  f2B BcB | f2B Bde | fgf edc |1 B6 :|2 B3A3 ||
|: DFA fed | cBc B2A | fed ceg |  bag fdA \
|  DFA fed | cBc B2A | fed cba |1 gBc d3 :|2 gBc dcd |
|: efe edc | e3  Acd | efe dcB |  B2A Acd \
|  efe edc | e3  Acd | efe B2c |  d6 :|
|: DFA DFA | BAF D3  | DFA DFA |  BAF E3 \
|  DFA DFA | BAF D3  | DFA cBA |  GFE D3 :|
